SVG_Azure_All/Terms of use.svg

<?xml version="1.0" encoding="UTF-8" standalone="no"?>
<!-- Generated by Microsoft Visio, SVG Export Terms of use.svg Page-1 -->

<svg
   xmlns:dc="http://purl.org/dc/elements/1.1/"
   xmlns:cc="http://creativecommons.org/ns#"
   xmlns:rdf="http://www.w3.org/1999/02/22-rdf-syntax-ns#"
   xmlns:svg="http://www.w3.org/2000/svg"
   xmlns="http://www.w3.org/2000/svg"
   xmlns:sodipodi="http://sodipodi.sourceforge.net/DTD/sodipodi-0.dtd"
   xmlns:inkscape="http://www.inkscape.org/namespaces/inkscape"
   width="0.78734517in"
   height="0.62985849in"
   viewBox="0 0 56.689088 45.349909"
   xml:space="preserve"
   class="st3"
   version="1.1"
   id="svg52"
   sodipodi:docname="Terms of use.svg"
   style="font-size:12px;overflow:visible;color-interpolation-filters:sRGB;fill:none;fill-rule:evenodd;stroke-linecap:square;stroke-miterlimit:3"
   inkscape:version="0.92.5 (2060ec1f9f, 2020-04-08)"><metadata
   id="metadata56"><rdf:RDF><cc:Work
       rdf:about=""><dc:format>image/svg+xml</dc:format><dc:type
         rdf:resource="http://purl.org/dc/dcmitype/StillImage" /></cc:Work></rdf:RDF></metadata><sodipodi:namedview
   pagecolor="#ffffff"
   bordercolor="#666666"
   borderopacity="1"
   objecttolerance="10"
   gridtolerance="10"
   guidetolerance="10"
   inkscape:pageopacity="0"
   inkscape:pageshadow="2"
   inkscape:window-width="640"
   inkscape:window-height="480"
   id="namedview54"
   showgrid="false"
   inkscape:zoom="1.5612629"
   inkscape:cx="37.795444"
   inkscape:cy="30.225603"
   inkscape:window-x="0"
   inkscape:window-y="0"
   inkscape:window-maximized="0"
   inkscape:current-layer="svg52" />
	<style
   type="text/css"
   id="style2">
	<![CDATA[
		.st1 {fill:url(#grad0-8);stroke:none;stroke-linecap:butt;stroke-width:33.9998}
		.st2 {fill:url(#grad0-13);stroke:none;stroke-linecap:butt;stroke-width:33.9998}
		.st3 {fill:none;fill-rule:evenodd;font-size:12px;overflow:visible;stroke-linecap:square;stroke-miterlimit:3}
	]]>
	</style>

	<defs
   id="Patterns_And_Gradients">
		<linearGradient
   id="grad0-8"
   x1="0"
   y1="90.727479"
   x2="42.819318"
   y2="90.727479"
   gradientTransform="scale(1.177973,0.8489159)"
   gradientUnits="userSpaceOnUse">
			<stop
   offset="0"
   stop-color="#76bc2d"
   stop-opacity="1"
   id="stop4" />
			<stop
   offset="0.6"
   stop-color="#81ce31"
   stop-opacity="1"
   id="stop6" />
			<stop
   offset="0.82"
   stop-color="#86d633"
   stop-opacity="1"
   id="stop8" />
		</linearGradient>
		<linearGradient
   id="grad0-13"
   x1="0"
   y1="68.773273"
   x2="45.852219"
   y2="68.773273"
   gradientTransform="scale(1.0110743,0.989047)"
   gradientUnits="userSpaceOnUse">
			<stop
   offset="0.225"
   stop-color="#32d4f5"
   stop-opacity="1"
   id="stop11" />
			<stop
   offset="0.475"
   stop-color="#31d1f3"
   stop-opacity="1"
   id="stop13" />
			<stop
   offset="0.89"
   stop-color="#22a5cb"
   stop-opacity="1"
   id="stop15" />
			<stop
   offset="1"
   stop-color="#198ab3"
   stop-opacity="1"
   id="stop17" />
			<stop
   offset="1"
   stop-color="#198ab3"
   stop-opacity="1"
   id="stop19" />
		</linearGradient>
	</defs>
	<g
   id="g50"
   transform="translate(-33.9998,-34.004413)">
		<title
   id="title23">Page-1</title>
		<g
   id="group768-1"
   transform="translate(33.9998,-34.0157)">
			<title
   id="title25">Terms of use</title>
			<g
   id="group769-2">
				<title
   id="title27">Page-1</title>
				<g
   id="group770-3">
					<title
   id="title29">Sheet.770</title>
					<g
   id="group771-4"
   transform="translate(6.24909,-7.87106)">
						<title
   id="title31">Sheet.771</title>
						<g
   id="shape772-5">
							<title
   id="title33">Sheet.772</title>
							<path
   d="M 17.39,105.04 4.09,92.03 0,96.26 17.39,113.37 50.44,81.36 46.36,77.02 Z"
   class="st1"
   id="path35"
   inkscape:connector-curvature="0"
   style="fill:url(#grad0-8);stroke:none;stroke-width:33.99980164;stroke-linecap:butt" />
						</g>
					</g>
					<g
   id="group773-9">
						<title
   id="title39">Sheet.773</title>
						<g
   id="shape774-10">
							<title
   id="title41">Sheet.774</title>
							<path
   d="m 26.13,107.82 c -1.36,1.33 -3.52,1.33 -4.89,0 L 3.87,90.81 C 2.5,89.47 2.5,87.47 3.75,86.14 L 7.96,81.8 c 0.68,-0.66 1.47,-1 2.49,-1 0.91,0 1.83,0.34 2.39,1 L 23.75,92.48 46.01,70.91 C 45.44,69.24 43.74,68.02 41.93,68.02 H 4.43 c -2.5,0 -4.43,2 -4.43,4.34 v 36.68 c 0,2.33 1.93,4.33 4.43,4.33 h 37.5 c 2.38,0 4.43,-1.89 4.43,-4.33 V 88.36 Z"
   class="st2"
   id="path43"
   inkscape:connector-curvature="0"
   style="fill:url(#grad0-13);stroke:none;stroke-width:33.99980164;stroke-linecap:butt" />
						</g>
					</g>
				</g>
			</g>
		</g>
	</g>
</svg>

<?xml version="1.0" encoding="UTF-8" standalone="no"?>
<!DOCTYPE svg PUBLIC "-//W3C//DTD SVG 1.1//EN" "http://www.w3.org/Graphics/SVG/1.1/DTD/svg11.dtd">
<!-- Generated by Microsoft Visio, SVG Export Terms of use.svg Page-1 -->
<svg xmlns="http://www.w3.org/2000/svg" xmlns:xlink="http://www.w3.org/1999/xlink" xmlns:ev="http://www.w3.org/2001/xml-events"
		width="1.73184in" height="1.57458in" viewBox="0 0 124.693 113.37" xml:space="preserve" color-interpolation-filters="sRGB"
		class="st3">
	<style type="text/css">
	<![CDATA[
		.st1 {fill:url(#grad0-8);stroke:none;stroke-linecap:butt;stroke-width:33.9998}
		.st2 {fill:url(#grad0-13);stroke:none;stroke-linecap:butt;stroke-width:33.9998}
		.st3 {fill:none;fill-rule:evenodd;font-size:12px;overflow:visible;stroke-linecap:square;stroke-miterlimit:3}
	]]>
	</style>

	<defs id="Patterns_And_Gradients">
		<linearGradient id="grad0-8" x1="0" y1="0" x2="1" y2="0" gradientTransform="rotate(-90 0.5 0.5)">
			<stop offset="0" stop-color="#76bc2d" stop-opacity="1"/>
			<stop offset="0.6" stop-color="#81ce31" stop-opacity="1"/>
			<stop offset="0.82" stop-color="#86d633" stop-opacity="1"/>
		</linearGradient>
		<linearGradient id="grad0-13" x1="0" y1="0" x2="1" y2="0" gradientTransform="rotate(90 0.5 0.5)">
			<stop offset="0.225" stop-color="#32d4f5" stop-opacity="1"/>
			<stop offset="0.475" stop-color="#31d1f3" stop-opacity="1"/>
			<stop offset="0.89" stop-color="#22a5cb" stop-opacity="1"/>
			<stop offset="1" stop-color="#198ab3" stop-opacity="1"/>
			<stop offset="1" stop-color="#198ab3" stop-opacity="1"/>
		</linearGradient>
	</defs>
	<g>
		<title>Page-1</title>
		<g id="group753-1" transform="translate(33.9998,-34.0157)">
			<title>Terms of use</title>
			<g id="group754-2">
				<title>Page-1</title>
				<g id="group755-3">
					<title>Sheet.755</title>
					<g id="group756-4" transform="translate(6.24909,-7.87106)">
						<title>Sheet.756</title>
						<g id="shape757-5">
							<title>Sheet.757</title>
							<path d="M17.39 105.04 L4.09 92.03 L0 96.26 L17.39 113.37 L50.44 81.36 L46.36 77.02 L17.39 105.04 Z"
									class="st1"/>
						</g>
					</g>
					<g id="group758-9">
						<title>Sheet.758</title>
						<g id="shape759-10">
							<title>Sheet.759</title>
							<path d="M26.13 107.82 C24.77 109.15 22.61 109.15 21.24 107.82 L3.87 90.81 C2.5 89.47 2.5 87.47 3.75
										 86.14 L7.96 81.8 C8.64 81.14 9.43 80.8 10.45 80.8 C11.36 80.8 12.28 81.14 12.84 81.8 L23.75
										 92.48 L46.01 70.91 C45.44 69.24 43.74 68.02 41.93 68.02 L4.43 68.02 C1.93 68.02 0 70.02
										 0 72.36 L0 109.04 C0 111.37 1.93 113.37 4.43 113.37 L41.93 113.37 C44.31 113.37 46.36 111.48
										 46.36 109.04 L46.36 88.36 L26.13 107.82 Z" class="st2"/>
						</g>
					</g>
				</g>
			</g>
		</g>
	</g>
</svg>
